X:1
T:The Witches' Wood
T:The Witches' Wood
T:Copyright © CPDL
T:Copyright © CPDL
T:Copyright © CPDL
T:Copyright © CPDL
T:Copyright © CPDL
T:Copyright © CPDL
Z:Copyright © CPDL
%%score 1 { ( 2 3 ) ( 4 5 ) }
L:1/8
Q:1/4=75
M:4/4
K:Bb
V:1 treble nm="P1"
V:2 treble nm="P2"
V:3 treble 
V:4 bass nm="P3"
V:5 bass 
V:1
"^Editor: John Henry Fowler""^Lento mysterioso.""^(  Revision:   5 - 2 - 2008  )""^From \"English Lyrics\" -  Set 9 -  Number 3""^Words by Mary E. Coleridge" z8 | %1
w: |
 z8 | z!p!"^Charles Hubert Hastings Parry" GA"^( 1848 - 1918 )"B !>!e2 z c | dB G4 z2 | D3 D D3 D | %5
w: |There was a wood, a|wit- ches' wood,|All the trees there-|
 D2 z2 z2!<(! B2!<)! | !>!d4 z2!mf! d2 |!<(! (cd!<)!f)!>(!e!>)! d2 B2 | %8
w: in were|pale; They|bore _ _ no bran- ches|
!<(! (AB!<)!d)!>(!c!>)! B3 G |!p! E3 E E2 z E | B4 c4 ||[M:3/4]"^Allegretto." d4 z2 | %12
w: green _ _ and good But|as it were a|gray nun's|veil.|
 z2 z2!mf! z F | Bd f<d A>c | B2 z B !>!dB |"^dim." G3 G BG | E2 z2 z G | cd !>!e<G E>D | %18
w: They|talked and chat- tered in the|wind From morn- ing|dawn to set of|sun, Like|men and wo- men that have|
 C2 z2 z _A | =AB !>!cG EG | D2 z2!p! z ^F | G>B A>A"^poco cresc." d>B | A2 z!<(! B c!<)!A | %23
w: sinned, Whose|thou- sand e- vil tongues are|one. Their|roots were like the hands of|men, Grown hard and|
"^animando"!<(! F3!<)!"^cresc." c eB | A2 z2 z F | BG !>!e<c cA | z2!f! d>d dd | %27
w: brown with clutch- ing|gold, Their|fol- iage wo- men's tress- es|when The hair is|
 !>!g<"^allargando"A z !>!g2 e | c4"^rit." z2 | z6 | %30
w: with- ered, thin and|old.||
"^Poco meno mosso.""^dolce" z!p! B B/c/c/d/ BD | F3!<(! A c!<)!e | !>!e2- e>B BG | %33
w: There nev- er did a sweet bird|sing For hap- py|love _ a- bout his|
 c2 z"^cresc." c dc | e3 e gG | B4 z2 | z2 z G AB | B>=E G3 B | D4 z2 | z6 || %40
w: nest. The clus- tered|bats on e- vil|wing|Each hol- low|trunk and bough pos-|sessed.||
[M:4/4]"^Tempo primo." z8 | z8 ||[K:G] z GAB E3 F | G2 B2 D4 | z"^cresc." GAB e4 | z B^cd g3 G | %46
w: ||And in the midst a|pool there lay|Of wa- ter white,|as tho' a scare Had|
 g"^dim."ee^c f3 c | d4 z4 | z2!p! !breath!B2 d3 B | g6 G2 | d3 B d4- | d8- | d8- | d2 z2 z4 | %54
w: fright- ened off the eye of|day|And kept the|Moon re-|\-~flect- ed there.|_|||
 z8 |] %55
w: |
V:2
 ([G,DG]2 (3[GB]B,[GB] [EBe]2 (3[Bd]D[Bd] | [B,GB]2) (.[A,GA].[Cc]) (.[B,GB]2 .[G,DA]2) | %2
 [G,DG]2 (3(DG,D) [G,CG]2 (3(CG,C) | ([G,DG]2 (3FF,F [E,CE]2 (3FF,F) | %4
 ([G,DG]2 (3AA,A [CDc]2 (3BB,B | [A,DA]2) (3(FF,F [G,DG]2 (3BB,B | D2 (3AA,A [DAd]2) (3([Ad]D[Ad] | %7
 [EGc]2) (3([GA]B,[GA] [Beg]2) (3([GB]B,[GB] | %8
 [A,EA]2) (3([CE]A,[CE]!>(! [G,DG]2) (3([B,D]G,!>)![B,D]) | %9
 ([E,B,E]2 (3[EG]G,[EG] [CGc]2 (3[GB]B,[GB] | %10
!<(! [G,EG]2) (.[G,FG]!<)!!>(!.[_A,_A]) !tenuto![G,EG]2 (.[F,F]!>)!.[E,E]) || %11
[M:3/4] .[F,DF]/(F/d/f/) ([db]>[Bf]) ([Ad]/c/) ([EAd]/c/) | %12
 [DB]/(F/d/f/) ([db]>[Bf]) ([Ad]/c/) ([EAd]/c/) | [DB]/(F/d/f/) ([db]>[Bf]) ([Ad]/c/) ([EAd]/c/) | %14
 [DB]/(F/d/f/) ([db]>[Bf]) ([_Ad]/c/) ([DAd]/c/) | %15
 [GB]/(E/G/B/) ([Ge]>[EB]) ([DG]/F/) ([_A,DG]/F/) | %16
 [G,E]/(C/E/G/) ([Ec]>[CG]) ([=B,E]/D/)([F,B,E]/D/) | %17
 [E,C]/(G,/E/G/) ([Ec]>[CG]) ([=B,E]/D/)([F,B,E]/D/) | %18
 [E,C]/(_A,/E/_A/) ([Ec]>[CA]) (E/D/)([F,=B,E]/D/) | %19
 [E,C]/(G,/E/G/) ([Ec]>[CG]) ([G,E]/C/)([G,E]/C/) | ([^F,A,]>[F,A,E] [G,D]>[B,G]) ([F,A,]>[F,A,E] | %21
 [G,D]>[B,G]) ([^F,A,]>[F,A,E] [G,D]>[B,G]) | ([A,C]>[A,C_G] [B,F]>[DB]) [A,C]>[A,CG] | %23
 [B,F]>[DB]!<(! [A,C]>!<)![A,C_G] [B,F]>[DB] | %24
 [^C=E]>[CEB] !tenuto![DA]>[Fd] !tenuto![FA]>.[DF_c] | %25
 !tenuto![_EB]>.[Ge]!<(! !tenuto![^FA]>!<)!.[Ge] !tenuto![FA]>.[FAe] | %26
 [DGd]>[Gg]!<(! [^Fcd^f]>!<)![cc'] [Bgb]>[Gg] | [cgac']>[cgac'] [dgad']>[dgad'] [egae']>[egae'] | %28
 ([c'a']/[b_g']/[_ge']/[ec']/) ([ge']/[ec']/[ca]/[Bg]/) ([ca]/[Bg]/[_Ge]/([Ec]/) | %29
 [_Ge])z/([CA]/ [Ec])z/([B,G]/ [CA])z/([A,C]/ | [B,F]/B/)F- F/(d/F-) F/f/[FB]- | %31
 [FB]/(e/[EA]-) [EA]/(e/[EA]-) [EA]/(e/[EA]-) | [EA]/(e/[EG]-) [EA]/(e/[EG]-) [EG]/(e/[EG]-) | %33
 [EG]/(e/[EF]-) [EF]/(c/[EF]-) [EF]/(B/[DF]) | [EB]2- [EB]/(B/e/g/ b/e'/)[e'g']- | %35
 ([e'g']/^f'/)!>![e'g']- ([e'g']/f'/)!>![d'g']- ([d'g']/f'/)!>![^c'g'] | %36
 z/ (^d'/=e'/!>(!!>(!a/ b/)(^f/g/^d/ =e/)!>)!!>)!(A/B/^F/ | G/)(A,/B,/G,/ z2) z2 | z6 | z6 || %40
[M:4/4] ([G,DG]2 (3[GB]B,[GB] [EBe]2 (3[Bd]D[Bd] | [B,GB]2) (3([GA]A,[CGc]) (.[B,GB]2 .[A,DA]2) || %42
[K:G] [G,DG]2 z [G,DG]/[G,DG]/ (!tenuto![A,CE]2 .[A,CE]) z | %43
 [G,DG]2 z [G,DG]/[G,DG]/ (!tenuto![A,CE]2 .[A,DA]) z | %44
!<(! [B,GB]2 z!<)! [B,GB]/[B,GB]/ (!tenuto![A,GA]2 .[A,GA]) z | %45
 [DBd]2 z [DBd]/[DBd]/ [^CB^c]2 z [CBc]/[CBc]/ | [G^A^cg]2 z [B,EG] [^A,EF]2 z2 | %47
 [Fd]([DB][A,F][DB] [Fd][Af][db][Bf] | [db]2) (!breath![dd']2 [gd'g']2 [ff']2 | %49
 [ec'e']2) ([dd'][ff'] [ee']2) (.[dgd'].[cc']) | [dbd']2 [dbd']2 z (.d .b.d') | %51
 (.[ebf'g']2 .[ebf'g']2) z (.e .b.e') | (.[fd'f']2 .[fd'f']2) z4 | [gd'g']2 z2 [gd'g']2 z2 | %54
 [gd'g']8 |] %55
V:3
 x8 | x8 | x8 | x8 | x8 | x8 | x8 | x8 | x8 | x8 | x8 ||[M:3/4] x6 | x6 | x6 | x6 | x6 | x6 | x6 | %18
 x6 | x6 | x6 | x6 | x6 | x6 | x6 | x6 | x6 | x6 | x6 | x6 | x6 | x/ e x/ x/ e x/ x/ e x/ | %32
 x/ e x/ x/ e x/ x/ e x/ | x/ e x/ x/ c x/ x/ B x/ | x6 | x6 | x6 | x6 | x6 | x6 ||[M:4/4] x8 | %41
 x8 ||[K:G] x8 | x8 | x8 | x8 | x8 | x8 | x8 | x8 | x8 | x8 | x8 | [B,DGB]2 x2 [B,DGB]2 x2 | %54
 [B,DGB]8 |] %55
V:4
!pp! ([G,,,D,,G,,]2!<(! (3[G,,B,,]B,,,[G,,B,,]!<)! [E,,B,,E,]2!>(! (3[B,,D,]D,,!>)![B,,D,] | %1
 [B,,,G,,B,,]2) (.[A,,,G,,A,,].[C,,C,]) (.[B,,,G,,B,,]2 .[G,,,D,,A,,]2) | %2
 [G,,,D,,G,,]2 (3(D,,G,,,D,,) [G,,,C,,G,,]2 (3(C,,G,,,C,,) | %3
 ([G,,,D,,G,,]2 (3F,,F,,,F,, [E,,,C,,E,,]2 (3F,,F,,,F,,) | %4
 ([G,,,D,,G,,]2!<(! (3A,,A,,,A,,!<)! [C,,D,,C,]2!>(! (3B,,B,,,!>)!B,, | %5
 [A,,,D,,A,,]2) (3(F,,F,,,F,, [G,,,D,,G,,]2 (3B,,B,,,B,, | %6
 [D,,,D,,]2 (3A,,A,,,A,, [D,,A,,D,]2)!mf! (3([A,,D,]D,,[A,,D,] | %7
 [E,G,C]2) (3([A,,E,]D,,[A,,E,] [D,G,B,]2) (3([B,,D,]D,,[B,,D,] | %8
 [C,E,]2) (3(A,,D,,A,,"^dim."!>(! B,,2) (3(D,,G,,!>)!B,,) | %9
 (E,,2 (3G,,G,,,G,, [C,,G,,C,]2 (3B,,B,,,B,, | %10
!<(! [G,,,G,,]2) (.[F,,,F,,]!<)!!>(!.[_A,,,_A,,]) !tenuto![G,,,E,,G,,]2 (.[F,,,F,,]!>)!.[E,,,E,,]) || %11
[M:3/4]!p! [B,,,F,,]2 z/ (F,/B,/D/ F).F, | [B,,,F,,]2 z/ (F,/B,/D/ F).F, | %13
 [B,,,F,,]2 z/ (F,/B,/D/ F).F, | [B,,,F,,]2 z/ (F,/B,/D/ F).B,, | %15
 [B,,,B,,]2 z/ (B,,/E,/G,/ B,).B,, | [C,,G,,]2 z/ (G,,/C,/E,/ G,).G,, | %17
 [C,,G,,]2 z/ (G,,/C,/E,/ G,).G,, | [C,,_A,,]2 z/ (A,,/C,/E,/ _A,).A,, | %19
 [C,,=A,,]2 z/ (A,,/C,/E,/ A,).A,, | %20
!pp!"^legatissimo" (D,/^C,/)=C,- C,/(A,,/B,,/G,,/) (!>!D,/^C,/)=C,- | %21
 C,/(A,,/B,,/G,,/) (!>!D,/^C,/)=C,-"^poco cresc." C,/(A,,/B,,/G,,/) | %22
 (!>!=F,/=E,/)_E,- E,/(C,/D,/B,,/) (!>!F,/^E,/)_E,- | %23
"^animando" E,/(C,/D,/B,,/)"^cresc."!<(! (!>!F,/=E,/)_E,-!<)! E,/(C,/D,/B,,/) | %24
 (!>!A,/^G,/)=G,- G,/(=E,/F,/D,/) (!>!B,/=A,/)(_A, | %25
 A,/)(F,/G,/E,/) !>!.C/.B,/.=A, !>!.C/.B,/!f!.A, | %26
 !>!.[B,,B,]/.[A,,A,]/.[B,,B,]"^cresc." !>!.A,/!<(!.G,/.A,!<)! !>!.[G,,G,]/.[^F,,^F,]/.[G,,G,] | %27
 z/ .[E,,E,]/"^allargando"!tenuto![G,A,C] z/ .[D,,D,]/!tenuto![G,A,D] z/ .[C,,C,]/!tenuto![G,A,E] | %28
!ff! [F,,,F,,][K:treble]"^dim." (c/A/) (c/A/_G/E/)"^rit." (G/E/C/A,/) | %29
 z/ (_G,/A,/) z/ z/ (E,/G,/) z/ z/ (C,/E,/) z/ | %30
"^mormorando"!pp! [F,,D,](D/^C/ D/)(F,/D/C/ D/)(F,/D/B,/ | %31
 C/)(F,/C/=B,/ C/)(F,/C/B,/ C/)(F,/C/A,/ | B,/)(C,/B,/A,/ B,/)(C,/B,/A,/ B,/)(C,/B,/G,/ | %33
 A,/)(C,/F,/=E,/ F,/)(A,,/D,/C,/ F,/)(_A,,/F,/D,/) | %34
"^cresc." (G,,/B,,/E,/G,/[K:treble] B,/E/G/B/ e/g/b-) | (b/a/)!>!b- (b/a/)!>!b- (b/a/)!>!b | %36
!mf!"^dim." z6 | z2[K:bass] ^C/(^F,/G,/=E,/ ^C,/)(A,,/B,,/G,,/) | %38
 !tenuto![D,,A,,D,]2 !tenuto![D,,A,,D,]2 !>![D,,A,,D,]2- | [D,,A,,D,]2 !tenuto![D,,,A,,,D,,]2 z2 || %40
[M:4/4]!pp!!<(! ([G,,,D,,G,,]2 (3[G,,B,,]B,,,!<)!!>(![G,,B,,] [E,,B,,E,]2 (3[B,,D,]D,,!>)![B,,D,] | %41
 [B,,,D,,B,,]2) (3(A,,A,,,[C,,C,]) (.[B,,,G,,B,,]2 .[A,,,D,,A,,]2) || %42
[K:G] [G,,,D,,G,,]2 z [G,,,D,,G,,]/[G,,,D,,G,,]/ (!tenuto![A,,,E,,]2 .[A,,,E,,]) z | %43
 [G,,,D,,G,,]2 z [G,,,D,,G,,]/[G,,,D,,G,,]/ (!tenuto![A,,,D,,A,,]2 .[A,,,D,,A,,]) z | %44
"^cresc."!<(! [B,,,D,,B,,]2 z!<)! [B,,,D,,B,,]/[B,,,D,,B,,]/ (!tenuto![A,,,G,,A,,]2 .[A,,,G,,A,,]) z | %45
!f! [D,,B,,D,]2 z [D,,B,,D,]/[D,,B,,D,]/!<(! [^C,,G,,^C,]2 z [C,,G,,C,]/!<)![C,,G,,C,]/ | %46
!ff! ([F,,,F,,]/^C,/E,/^A,/!mf! ^C2) z2 F,,2 |!p! z F,D,F, B,DFD | F2!pp! (!breath!D2 G2 F2 | %49
 E2) (DF E2) (.D.C) | [G,,D,B,]2[K:treble] [G,DB]2 z (.D.B.d) | %51
"^dim." (.[EBd]2 .[EBd]2) z (.E.B.e) | (.[FAd]2 .[FAd]2)!pp! z2[K:bass] [D,B,D]2- | [D,B,D]8- | %54
 [D,B,D]8 |] %55
V:5
 x8 | x8 | x8 | x8 | x8 | x8 | D,2 x2 x4 | x8 | x8 | x8 | x8 ||[M:3/4] x6 | x6 | x6 | x6 | x6 | %16
 x6 | x6 | x6 | x6 | x6 | x6 | x6 | x6 | x6 | x6 | x6 | x6 | x[K:treble] x5 | x6 | x6 | x6 | x6 | %33
 x/ C, x/ x/ A,, x/ x/ _A,, x/ | G,,2[K:treble] x4 | x6 | x6 | x2[K:bass] x4 | x6 | x6 || %40
[M:4/4] x8 | x8 ||[K:G] x8 | x8 | x8 | x8 | x8 | [B,,,B,,]2 z2 z4 | z4 [B,D]2 z2 | [C,G,]2 z2 z4 | %50
 x2[K:treble] x6 | x8 | x4 z2[K:bass] [G,,,D,,G,,]2- | [G,,,D,,G,,]8- | [G,,,D,,G,,]8 |] %55

